src/media/winter.svg

<svg fill="none" height="64" viewBox="0 0 64 64" width="64" xmlns="http://www.w3.org/2000/svg"><path d="m59.7659 38.4458c-.0347-.1268-.0941-.2455-.1747-.3493s-.1809-.1907-.2952-.2557c-.1142-.065-.2402-.1069-.3706-.1232s-.2628-.0067-.3895.0282l-6.31 1.69c-.6197.1275-1.2642.043-1.83-.24l-12.24-7.07c-.1036-.0364-.1932-.1041-.2567-.1936-.0634-.0896-.0975-.1966-.0975-.3064s.0341-.2168.0975-.3064c.0635-.0895.1531-.1572.2567-.1936l12.24-7.07c.5658-.283 1.2103-.3675 1.83-.24l6.31 1.69c.1267.0349.2591.0445.3895.0282s.2564-.0582.3706-.1232c.1143-.065.2146-.1519.2952-.2557s.14-.2225.1747-.3493l.77-2.9c.0349-.1267.0445-.2591.0282-.3895-.0163-.1305-.0582-.2564-.1232-.3706-.065-.1143-.1519-.2146-.2557-.2952s-.2225-.14-.3493-.1747l-4.9-1.31c-.2557-.0681-.4739-.2347-.607-.4633-.1331-.2287-.1701-.5008-.103-.7567l1.31-4.9c.0349-.1267.0445-.2591.0282-.3895s-.0582-.2564-.1232-.3706c-.065-.1143-.1519-.2146-.2557-.2952s-.2225-.14-.3493-.1747l-2.9-.77c-.1267-.0349-.2591-.0445-.3895-.0282-.1305.0163-.2564.0582-.3706.1232-.1143.065-.2146.1519-.2952.2557s-.14.2225-.1747.3493l-1.69 6.32c-.1961.6001-.5912 1.1152-1.12 1.46l-12.24 7.07c-.48.27-.87 0-.87-.5v-14.13c.0351-.6342.2856-1.2374.71-1.71l4.62-4.62c.0937-.09296.1681-.20356.2189-.32542s.0769-.25257.0769-.38458-.0261-.26272-.0769-.38458-.1252-.23246-.2189-.32542l-2.12-2.12c-.093-.09373-.2036-.16812-.3254-.21889-.1219-.05077-.2526-.07691-.3846-.07691s-.2627.02614-.3846.07691c-.1218.05077-.2324.12516-.3254.21889l-3.58 3.59c-.093.09373-.2036.16812-.3254.21889-.1219.05077-.2526.07691-.3846.07691s-.2627-.02614-.3846-.07691c-.1218-.05077-.2324-.12516-.3254-.21889l-3.58-3.59c-.093-.09373-.2036-.16812-.3254-.21889-.1219-.05077-.2526-.07691-.3846-.07691s-.2627.02614-.3846.07691c-.1218.05077-.2324.12516-.3254.21889l-2.12 2.12c-.0937.09296-.1681.20356-.2189.32542s-.0769.25257-.0769.38458.0261.26272.0769.38458.1252.23246.2189.32542l4.62 4.62c.4244.4726.6749 1.0758.71 1.71v14.13c0 .55-.39.77-.87.5l-12.24-7.07c-.5288-.3448-.924-.8599-1.12-1.46l-1.69-6.32c-.0347-.1268-.0941-.2455-.1747-.3493s-.1809-.1907-.2952-.2557c-.1142-.065-.2402-.1069-.3706-.1232s-.2628-.0067-.3895.0282l-2.90001.77c-.12677.0347-.24546.0941-.34928.1747-.10381.0806-.19071.1809-.25572.2952-.06502.1142-.10687.2402-.12317.3706s-.00673.2628.02817.3895l1.31001 4.9c.0671.2559.0301.528-.103.7567-.1331.2286-.35135.3952-.60701.4633l-4.9 1.31c-.12678.0347-.24546.0941-.34928.1747-.10381.0806-.19071.1809-.25572.2952-.06502.1142-.10687.2401-.12317.3706-.0163.1304-.00673.2628.02817.3895l.77 2.9c.03472.1268.09408.2455.17471.3493s.18093.1907.29517.2557.24017.1069.3706.1232.26279.0067.38952-.0282l6.31001-1.69c.6196-.1275 1.2642-.043 1.83.24l12.24 7.07c.1035.0364.1932.1041.2567.1936.0634.0896.0975.1966.0975.3064s-.0341.2168-.0975.3064c-.0635.0895-.1532.1572-.2567.1936l-12.24 7.07c-.5658.283-1.2104.3675-1.83.24l-6.31001-1.69c-.12673-.0349-.25909-.0445-.38952-.0282s-.25636.0582-.3706.1232-.21454.1519-.29517.2557-.13999.2225-.17471.3493l-.77 2.9c-.0349.1267-.04447.2591-.02817.3895.0163.1305.05815.2564.12317.3706.06501.1143.15191.2146.25572.2952.10382.0806.2225.14.34928.1747l4.9 1.31c.25566.0681.47391.2347.60701.4633.1331.2287.1701.5008.103.7567l-1.31001 4.9c-.0349.1267-.04447.2591-.02817.3895s.05815.2564.12317.3706c.06501.1143.15191.2146.25572.2952.10382.0806.22251.14.34928.1747l2.90001.77c.1267.0349.2591.0445.3895.0282s.2564-.0582.3706-.1232c.1143-.065.2146-.1519.2952-.2557s.14-.2225.1747-.3493l1.69-6.32c.196-.6001.5912-1.1152 1.12-1.46l12.24-7.07c.48-.27.87 0 .87.5v14.13c-.0351.6342-.2856 1.2374-.71 1.71l-4.62 4.62c-.0937.093-.1681.2036-.2189.3254-.0508.1219-.0769.2526-.0769.3846s.0261.2627.0769.3846c.0508.1218.1252.2324.2189.3254l2.12 2.12c.093.0937.2036.1681.3254.2189.1219.0508.2526.0769.3846.0769s.2627-.0261.3846-.0769c.1218-.0508.2324-.1252.3254-.2189l3.58-3.59c.093-.0937.2036-.1681.3254-.2189.1219-.0508.2526-.0769.3846-.0769s.2627.0261.3846.0769c.1218.0508.2324.1252.3254.2189l3.58 3.59c.093.0937.2036.1681.3254.2189.1219.0508.2526.0769.3846.0769s.2627-.0261.3846-.0769c.1218-.0508.2324-.1252.3254-.2189l2.12-2.12c.0937-.093.1681-.2036.2189-.3254.0508-.1219.0769-.2526.0769-.3846s-.0261-.2627-.0769-.3846c-.0508-.1218-.1252-.2324-.2189-.3254l-4.62-4.62c-.4244-.4726-.6749-1.0758-.71-1.71v-14.13c0-.55.39-.77.87-.5l12.24 7.07c.5288.3448.9239.8599 1.12 1.46l1.69 6.32c.0347.1268.0941.2455.1747.3493s.1809.1907.2952.2557c.1142.065.2401.1069.3706.1232.1304.0163.2628.0067.3895-.0282l2.9-.77c.1268-.0347.2455-.0941.3493-.1747s.1907-.1809.2557-.2952c.065-.1142.1069-.2402.1232-.3706s.0067-.2628-.0282-.3895l-1.31-4.9c-.0671-.2559-.0301-.528.103-.7567.1331-.2286.3513-.3952.607-.4633l4.9-1.26c.1268-.0347.2455-.0941.3493-.1747s.1907-.1809.2557-.2952c.065-.1142.1069-.2402.1232-.3706s.0067-.2628-.0282-.3895z" fill="#fff"/></svg>

<svg width="64" height="64" viewBox="0 0 64 64" fill="none" xmlns="http://www.w3.org/2000/svg">
<path d="M59.7659 38.4458C59.7312 38.319 59.6718 38.2003 59.5912 38.0965C59.5106 37.9927 59.4103 37.9058 59.296 37.8408C59.1818 37.7758 59.0558 37.7339 58.9254 37.7176C58.795 37.7013 58.6626 37.7109 58.5359 37.7458L52.2259 39.4358C51.6062 39.5633 50.9617 39.4788 50.3959 39.1958L38.1559 32.1258C38.0523 32.0894 37.9627 32.0217 37.8992 31.9322C37.8358 31.8426 37.8017 31.7356 37.8017 31.6258C37.8017 31.516 37.8358 31.409 37.8992 31.3194C37.9627 31.2299 38.0523 31.1622 38.1559 31.1258L50.3959 24.0558C50.9617 23.7728 51.6062 23.6883 52.2259 23.8158L58.5359 25.5058C58.6626 25.5407 58.795 25.5503 58.9254 25.534C59.0558 25.5177 59.1818 25.4758 59.296 25.4108C59.4103 25.3458 59.5106 25.2589 59.5912 25.1551C59.6718 25.0513 59.7312 24.9326 59.7659 24.8058L60.5359 21.9058C60.5708 21.7791 60.5804 21.6467 60.5641 21.5163C60.5478 21.3858 60.5059 21.2599 60.4409 21.1457C60.3759 21.0314 60.289 20.9311 60.1852 20.8505C60.0814 20.7699 59.9627 20.7105 59.8359 20.6758L54.9359 19.3658C54.6802 19.2977 54.462 19.1311 54.3289 18.9025C54.1958 18.6738 54.1588 18.4017 54.2259 18.1458L55.5359 13.2458C55.5708 13.1191 55.5804 12.9867 55.5641 12.8563C55.5478 12.7259 55.5059 12.5999 55.4409 12.4857C55.3759 12.3714 55.289 12.2711 55.1852 12.1905C55.0814 12.1099 54.9627 12.0505 54.8359 12.0158L51.9359 11.2458C51.8092 11.2109 51.6768 11.2013 51.5464 11.2176C51.4159 11.2339 51.29 11.2758 51.1758 11.3408C51.0615 11.4058 50.9612 11.4927 50.8806 11.5965C50.8 11.7003 50.7406 11.819 50.7059 11.9458L49.0159 18.2658C48.8198 18.8659 48.4247 19.381 47.8959 19.7258L35.6559 26.7958C35.1759 27.0658 34.7859 26.7958 34.7859 26.2958V12.1658C34.821 11.5316 35.0715 10.9284 35.4959 10.4558L40.1159 5.8358C40.2096 5.74284 40.284 5.63224 40.3348 5.51038C40.3856 5.38852 40.4117 5.25781 40.4117 5.1258C40.4117 4.99379 40.3856 4.86308 40.3348 4.74122C40.284 4.61936 40.2096 4.50876 40.1159 4.4158L37.9959 2.2958C37.9029 2.20207 37.7923 2.12768 37.6705 2.07691C37.5486 2.02614 37.4179 2 37.2859 2C37.1539 2 37.0232 2.02614 36.9013 2.07691C36.7795 2.12768 36.6689 2.20207 36.5759 2.2958L32.9959 5.8858C32.9029 5.97953 32.7923 6.05392 32.6705 6.10469C32.5486 6.15546 32.4179 6.1816 32.2859 6.1816C32.1539 6.1816 32.0232 6.15546 31.9013 6.10469C31.7795 6.05392 31.6689 5.97953 31.5759 5.8858L27.9959 2.2958C27.9029 2.20207 27.7923 2.12768 27.6705 2.07691C27.5486 2.02614 27.4179 2 27.2859 2C27.1539 2 27.0232 2.02614 26.9013 2.07691C26.7795 2.12768 26.6689 2.20207 26.5759 2.2958L24.4559 4.4158C24.3622 4.50876 24.2878 4.61936 24.237 4.74122C24.1862 4.86308 24.1601 4.99379 24.1601 5.1258C24.1601 5.25781 24.1862 5.38852 24.237 5.51038C24.2878 5.63224 24.3622 5.74284 24.4559 5.8358L29.0759 10.4558C29.5003 10.9284 29.7508 11.5316 29.7859 12.1658V26.2958C29.7859 26.8458 29.3959 27.0658 28.9159 26.7958L16.6759 19.7258C16.1471 19.381 15.7519 18.8659 15.5559 18.2658L13.8659 11.9458C13.8312 11.819 13.7718 11.7003 13.6912 11.5965C13.6106 11.4927 13.5103 11.4058 13.396 11.3408C13.2818 11.2758 13.1558 11.2339 13.0254 11.2176C12.895 11.2013 12.7626 11.2109 12.6359 11.2458L9.73589 12.0158C9.60912 12.0505 9.49043 12.1099 9.38661 12.1905C9.2828 12.2711 9.1959 12.3714 9.13089 12.4857C9.06587 12.5999 9.02402 12.7259 9.00772 12.8563C8.99142 12.9867 9.00099 13.1191 9.03589 13.2458L10.3459 18.1458C10.413 18.4017 10.376 18.6738 10.2429 18.9025C10.1098 19.1311 9.89155 19.2977 9.63589 19.3658L4.73589 20.6758C4.60911 20.7105 4.49043 20.7699 4.38661 20.8505C4.2828 20.9311 4.1959 21.0314 4.13089 21.1457C4.06587 21.2599 4.02402 21.3858 4.00772 21.5163C3.99142 21.6467 4.00099 21.7791 4.03589 21.9058L4.80589 24.8058C4.84061 24.9326 4.89997 25.0513 4.9806 25.1551C5.06123 25.2589 5.16153 25.3458 5.27577 25.4108C5.39001 25.4758 5.51594 25.5177 5.64637 25.534C5.7768 25.5503 5.90916 25.5407 6.03589 25.5058L12.3459 23.8158C12.9655 23.6883 13.6101 23.7728 14.1759 24.0558L26.4159 31.1258C26.5194 31.1622 26.6091 31.2299 26.6726 31.3194C26.736 31.409 26.7701 31.516 26.7701 31.6258C26.7701 31.7356 26.736 31.8426 26.6726 31.9322C26.6091 32.0217 26.5194 32.0894 26.4159 32.1258L14.1759 39.1958C13.6101 39.4788 12.9655 39.5633 12.3459 39.4358L6.03589 37.7458C5.90916 37.7109 5.7768 37.7013 5.64637 37.7176C5.51594 37.7339 5.39001 37.7758 5.27577 37.8408C5.16153 37.9058 5.06123 37.9927 4.9806 38.0965C4.89997 38.2003 4.84061 38.319 4.80589 38.4458L4.03589 41.3458C4.00099 41.4725 3.99142 41.6049 4.00772 41.7353C4.02402 41.8658 4.06587 41.9917 4.13089 42.1059C4.1959 42.2202 4.2828 42.3205 4.38661 42.4011C4.49043 42.4817 4.60911 42.5411 4.73589 42.5758L9.63589 43.8858C9.89155 43.9539 10.1098 44.1205 10.2429 44.3491C10.376 44.5778 10.413 44.8499 10.3459 45.1058L9.03589 50.0058C9.00099 50.1325 8.99142 50.2649 9.00772 50.3953C9.02402 50.5257 9.06587 50.6517 9.13089 50.7659C9.1959 50.8802 9.2828 50.9805 9.38661 51.0611C9.49043 51.1417 9.60912 51.2011 9.73589 51.2358L12.6359 52.0058C12.7626 52.0407 12.895 52.0503 13.0254 52.034C13.1558 52.0177 13.2818 51.9758 13.396 51.9108C13.5103 51.8458 13.6106 51.7589 13.6912 51.6551C13.7718 51.5513 13.8312 51.4326 13.8659 51.3058L15.5559 44.9858C15.7519 44.3857 16.1471 43.8706 16.6759 43.5258L28.9159 36.4558C29.3959 36.1858 29.7859 36.4558 29.7859 36.9558V51.0858C29.7508 51.72 29.5003 52.3232 29.0759 52.7958L24.4559 57.4158C24.3622 57.5088 24.2878 57.6194 24.237 57.7412C24.1862 57.8631 24.1601 57.9938 24.1601 58.1258C24.1601 58.2578 24.1862 58.3885 24.237 58.5104C24.2878 58.6322 24.3622 58.7428 24.4559 58.8358L26.5759 60.9558C26.6689 61.0495 26.7795 61.1239 26.9013 61.1747C27.0232 61.2255 27.1539 61.2516 27.2859 61.2516C27.4179 61.2516 27.5486 61.2255 27.6705 61.1747C27.7923 61.1239 27.9029 61.0495 27.9959 60.9558L31.5759 57.3658C31.6689 57.2721 31.7795 57.1977 31.9013 57.1469C32.0232 57.0961 32.1539 57.07 32.2859 57.07C32.4179 57.07 32.5486 57.0961 32.6705 57.1469C32.7923 57.1977 32.9029 57.2721 32.9959 57.3658L36.5759 60.9558C36.6689 61.0495 36.7795 61.1239 36.9013 61.1747C37.0232 61.2255 37.1539 61.2516 37.2859 61.2516C37.4179 61.2516 37.5486 61.2255 37.6705 61.1747C37.7923 61.1239 37.9029 61.0495 37.9959 60.9558L40.1159 58.8358C40.2096 58.7428 40.284 58.6322 40.3348 58.5104C40.3856 58.3885 40.4117 58.2578 40.4117 58.1258C40.4117 57.9938 40.3856 57.8631 40.3348 57.7412C40.284 57.6194 40.2096 57.5088 40.1159 57.4158L35.4959 52.7958C35.0715 52.3232 34.821 51.72 34.7859 51.0858V36.9558C34.7859 36.4058 35.1759 36.1858 35.6559 36.4558L47.8959 43.5258C48.4247 43.8706 48.8198 44.3857 49.0159 44.9858L50.7059 51.3058C50.7406 51.4326 50.8 51.5513 50.8806 51.6551C50.9612 51.7589 51.0615 51.8458 51.1758 51.9108C51.29 51.9758 51.4159 52.0177 51.5464 52.034C51.6768 52.0503 51.8092 52.0407 51.9359 52.0058L54.8359 51.2358C54.9627 51.2011 55.0814 51.1417 55.1852 51.0611C55.289 50.9805 55.3759 50.8802 55.4409 50.7659C55.5059 50.6517 55.5478 50.5257 55.5641 50.3953C55.5804 50.2649 55.5708 50.1325 55.5359 50.0058L54.2259 45.1058C54.1588 44.8499 54.1958 44.5778 54.3289 44.3491C54.462 44.1205 54.6802 43.9539 54.9359 43.8858L59.8359 42.6258C59.9627 42.5911 60.0814 42.5317 60.1852 42.4511C60.289 42.3705 60.3759 42.2702 60.4409 42.1559C60.5059 42.0417 60.5478 41.9157 60.5641 41.7853C60.5804 41.6549 60.5708 41.5225 60.5359 41.3958L59.7659 38.4458Z" fill="white"/>
</svg>
